Papirus-nordic/32x32/places/folder-nordic-publicshare-open.svg

<svg xmlns="http://www.w3.org/2000/svg" width="32" height="32" version="1"><rect width="25" height="16" x="3" y="12" rx="1.25" ry="1.25" opacity=".2"/><path d="M3 21.75c0 .692.558 1.25 1.25 1.25h22.5c.692 0 1.25-.558 1.25-1.25V8.25C28 7.558 27.442 7 26.75 7H14v-.75C14 5.558 13.443 5 12.75 5h-8.5C3.558 5 3 5.558 3 6.25" fill="#6c9b9a"/><rect width="25" height="13" x="3" y="13" rx="1.25" ry="1.25" opacity=".2"/><rect width="21" height="10" x="5" y="9" rx="1.25" ry="1.25" fill="#e4e4e4"/><rect width="25" height="13" x="3" y="14" rx="1.25" ry="1.25" fill="#82abaa"/><path d="M4.25 5C3.558 5 3 5.558 3 6.25v1C3 6.558 3.558 6 4.25 6h8.5c.693 0 1.25.558 1.25 1.25V8h12.75c.692 0 1.25.557 1.25 1.25v-1C28 7.558 27.442 7 26.75 7H14v-.75C14 5.558 13.443 5 12.75 5h-8.5z" opacity=".1" fill="#fff"/><path d="M13.41 18.301a.465.465 0 0 0-.101.035c-.323.151-.407.623-.186 1.06.178.352.493.57.779.563C14.118 21.128 14.976 22 16 22c1.024 0 1.882-.872 2.098-2.041.286.007.601-.211.779-.563.221-.437.137-.909-.186-1.06a.465.465 0 0 0-.101-.035C18.548 17.023 17.406 16 16 16s-2.548 1.023-2.59 2.301zM15.996 23c-.583 0-1.109-.29-1.496-.752-1.631.241-3.375.59-3.484.988-.002.006.001.013 0 .018-.005.02-.006.038-.008.058-.001.01-.008.016-.008.026v1.394c0 .149.111.268.25.268h9.5c.139 0 .25-.119.25-.268v-1.404c-.001-.032-.015-.06-.023-.092-.116-.414-1.806-.777-3.409-1.019a1.443 1.443 0 0 1-.507.443l-.002.002a1.852 1.852 0 0 1-1.055.338" fill="#4e6766"/></svg>

<svg xmlns="http://www.w3.org/2000/svg" width="32" height="32" version="1">
 <rect style="opacity:0.2" width="25" height="16" x="3" y="12" rx="1.25" ry="1.25"/>
 <path style="fill:#6c9b9a" d="M 3,21.75 C 3,22.442 3.5575,23 4.25,23 H 26.75 C 27.442,23 28,22.442 28,21.75 V 8.25 C 28,7.5575 27.442,7 26.75,7 H 14 V 6.25 C 14,5.5575 13.443,5 12.75,5 H 4.25 C 3.5575,5 3,5.5575 3,6.25"/>
 <rect style="opacity:0.2" width="25" height="13" x="3" y="13" rx="1.25" ry="1.25"/>
 <rect style="fill:#e4e4e4" width="21" height="10" x="5" y="9" rx="1.25" ry="1.25"/>
 <rect style="fill:#82abaa" width="25" height="13" x="3" y="14" rx="1.25" ry="1.25"/>
 <path style="opacity:0.1;fill:#ffffff" d="M 4.25 5 C 3.5575 5 3 5.5575 3 6.25 L 3 7.25 C 3 6.5575 3.5575 6 4.25 6 L 12.75 6 C 13.443 6 14 6.5575 14 7.25 L 14 8 L 26.75 8 C 27.442 8 28 8.5575 28 9.25 L 28 8.25 C 28 7.5575 27.442 7 26.75 7 L 14 7 L 14 6.25 C 14 5.5575 13.443 5 12.75 5 L 4.25 5 z"/>
 <path style="fill:#4e6766" d="M 13.41,18.301 C 13.376,18.308 13.341,18.321 13.309,18.336 12.986,18.487 12.902,18.959 13.123,19.396 13.301,19.748 13.616,19.966 13.902,19.959 14.118,21.128 14.976,22 16,22 17.024,22 17.882,21.128 18.098,19.959 18.384,19.966 18.699,19.748 18.877,19.396 19.098,18.959 19.014,18.487 18.691,18.336 18.659,18.321 18.624,18.308 18.59,18.301 18.548,17.023 17.406,16 16,16 14.594,16 13.452,17.023 13.41,18.301 Z M 15.996,23 C 15.413,23 14.887,22.71 14.5,22.248 12.869,22.489 11.125,22.838 11.016,23.236 11.014,23.242 11.017,23.249 11.016,23.254 11.011,23.274 11.01,23.292 11.008,23.312 11.007,23.322 11,23.328 11,23.338 V 24.732 C 11,24.881 11.111,25 11.25,25 H 20.75 C 20.889,25 21,24.881 21,24.732 V 23.328 C 20.999,23.296 20.985,23.268 20.977,23.236 20.861,22.822 19.171,22.459 17.568,22.217 17.445,22.389 17.281,22.544 17.061,22.66 L 17.059,22.662 C 16.747,22.877 16.386,23 16.004,23"/>
</svg>
